; generated by PrusaSlicer 2.3.1+win64 on 2021-06-30 at 13:55:33 UTC

; 

; external perimeters extrusion width = 0.60mm
; perimeters extrusion width = 0.50mm
; infill extrusion width = 0.50mm
; solid infill extrusion width = 0.50mm
; top infill extrusion width = 0.45mm
; first layer extrusion width = 0.42mm

M73 P0 R95
M73 Q0 S95
M201 X1000 Y1000 Z1000 E5000 ; sets maximum accelerations, mm/sec^2
M203 X200 Y200 Z12 E120 ; sets maximum feedrates, mm/sec
M204 P1250 R1250 T1250 ; sets acceleration (P, T) and retract acceleration (R), mm/sec^2
M205 X8.00 Y8.00 Z0.40 E4.50 ; sets the jerk limits, mm/sec
M205 S0 T0 ; sets the minimum extruding and travel feed rate, mm/sec
M107
;TYPE:Custom
M862.3 P "MK3S" ; printer model check
M862.1 P0.4 ; nozzle diameter check
M115 U3.8.1 ; tell printer latest fw version
G90 ; use absolute coordinates
M83 ; extruder relative mode
M104 S215 ; set extruder temp
M140 S60 ; set bed temp
M190 S60 ; wait for bed temp
M109 S215 ; wait for extruder temp
G28 W ; home all without mesh bed level
G80 ; mesh bed leveling
G1 Y-3.0 F1000.0 ; go outside print area
G92 E0.0
G1 X60.0 E9.0 F1000.0 ; intro line
G1 X100.0 E12.5 F1000.0 ; intro line
G92 E0.0
M221 S95
G21 ; set units to millimeters
G90 ; use absolute coordinates
M83 ; use relative distances for extrusion
M900 K30 ; Filament gcode
;LAYER_CHANGE
;Z:0.2
;HEIGHT:0.2
;BEFORE_LAYER_CHANGE
G92 E0.0
;0.2


G1 E-0.80000 F2100.000
G1 Z0.600 F10800.000
;AFTER_LAYER_CHANGE
;0.2
G1 X128.438 Y141.478
G1 Z0.200
G1 E0.80000 F2100.000
M204 S1000
;TYPE:Skirt
;WIDTH:0.42
G1 F1200.000
G1 X127.583 Y141.736 E0.02802
G1 X124.999 Y141.833 E0.08105
G1 X121.235 Y141.640 E0.11819
G1 X117.523 Y141.067 E0.11775
G1 X113.873 Y140.113 E0.11829
G1 X110.837 Y139.001 E0.10138
G1 X108.034 Y137.693 E0.09698
G1 X104.779 Y135.786 E0.11829
G1 X101.754 Y133.571 E0.11755
G1 X98.955 Y131.045 E0.11821
G1 X96.427 Y128.244 E0.11830
G1 X94.202 Y125.203 E0.11814
G1 X92.296 Y121.946 E0.11834
G1 X90.750 Y118.550 E0.11699
G1 X89.539 Y114.962 E0.11873
G1 X88.847 Y112.045 E0.09399
G1 X88.358 Y108.754 E0.10433
G1 X88.167 Y104.999 E0.11790
G1 X88.360 Y101.232 E0.11826
G1 X88.937 Y97.508 E0.11814
G1 X89.892 Y93.860 E0.11825
G1 X91.200 Y90.363 E0.11707
G1 X92.525 Y87.621 E0.09548
G1 X94.223 Y84.765 E0.10418
G1 X96.429 Y81.754 E0.11703
G1 X98.955 Y78.955 E0.11823
G1 X101.754 Y76.429 E0.11821
G1 X104.784 Y74.210 E0.11773
G1 X108.039 Y72.304 E0.11826
G1 X110.984 Y70.938 E0.10180
G1 X113.878 Y69.886 E0.09656
G1 X117.530 Y68.932 E0.11833
G1 X121.233 Y68.360 E0.11749
G1 X125.005 Y68.167 E0.11844
G1 X127.565 Y68.263 E0.08032
G1 X128.382 Y68.493 E0.02661
G1 X128.898 Y68.835 E0.01941
G1 X129.310 Y69.302 E0.01953
G1 X129.587 Y69.860 E0.01953
G1 X129.710 Y70.471 E0.01953
G1 X129.715 Y139.371 E2.16033
G1 X129.628 Y140.011 E0.02024
G1 X129.371 Y140.603 E0.02024
G1 X128.965 Y141.105 E0.02024
G1 X128.487 Y141.444 E0.01836
;WIPE_START
G1 F8640.000
G1 X127.583 Y141.736 E-0.21950
G1 X125.243 Y141.824 E-0.54050
;WIPE_END
G1 E-0.04000 F2100.000
G1 Z0.800 F10800.000
G1 X124.498 Y138.513
G1 Z0.200
G1 E0.80000 F2100.000
;TYPE:Perimeter
G1 F1200.000
G1 X123.049 Y138.465 E0.04546
G1 X121.626 Y138.351 E0.04478
G1 X120.296 Y138.188 E0.04202
G1 X119.313 Y138.036 E0.03117
G1 X118.177 Y137.820 E0.03625
G1 X116.835 Y137.511 E0.04320
G1 X115.935 Y137.273 E0.02916
G1 X114.834 Y136.943 E0.03604
M73 P0 R94
G1 X113.391 Y136.447 E0.04785
G1 X112.087 Y135.934 E0.04394
G1 X110.625 Y135.283 E0.05017
G1 X109.533 Y134.739 E0.03825
G1 X108.579 Y134.225 E0.03398
G1 X107.585 Y133.643 E0.03611
G1 X106.612 Y133.028 E0.03611
G1 X105.660 Y132.380 E0.03610
G1 X104.785 Y131.740 E0.03398
G1 X103.827 Y130.989 E0.03818
G1 X102.465 Y129.816 E0.05634
G1 X101.312 Y128.719 E0.04992
G1 X100.466 Y127.842 E0.03821
G1 X99.740 Y127.037 E0.03398
G1 X98.998 Y126.157 E0.03611
G1 X98.287 Y125.251 E0.03611
G1 X97.607 Y124.322 E0.03610
G1 X96.998 Y123.427 E0.03392
G1 X96.153 Y122.074 E0.05004
G1 X95.446 Y120.819 E0.04514
G1 X94.737 Y119.416 E0.04930
G1 X94.233 Y118.306 E0.03821
G1 X93.818 Y117.305 E0.03398
G1 X93.414 Y116.227 E0.03611
G1 X93.047 Y115.135 E0.03611
G1 X92.718 Y114.032 E0.03610
G1 X92.443 Y112.983 E0.03398
G1 X92.175 Y111.796 E0.03817
G1 X91.852 Y109.991 E0.05750
G1 X91.656 Y108.448 E0.04876
G1 X91.553 Y107.234 E0.03821
G1 X91.498 Y106.152 E0.03398
G1 X91.478 Y105.000 E0.03611
G1 X91.498 Y103.848 E0.03611
G1 X91.553 Y102.766 E0.03398
G1 X91.656 Y101.552 E0.03821
G1 X91.853 Y100.009 E0.04878
G1 X92.175 Y98.204 E0.05748
G1 X92.443 Y97.017 E0.03817
G1 X92.718 Y95.968 E0.03398
G1 X93.047 Y94.865 E0.03610
G1 X93.414 Y93.773 E0.03611
G1 X93.818 Y92.695 E0.03611
G1 X94.233 Y91.694 E0.03398
G1 X94.737 Y90.584 E0.03821
G1 X95.446 Y89.181 E0.04931
G1 X96.153 Y87.926 E0.04514
G1 X96.998 Y86.573 E0.05003
G1 X97.607 Y85.678 E0.03392
G1 X98.287 Y84.749 E0.03610
G1 X98.998 Y83.843 E0.03611
G1 X99.740 Y82.963 E0.03611
G1 X100.466 Y82.158 E0.03398
G1 X101.312 Y81.281 E0.03821
G1 X102.462 Y80.187 E0.04975
G1 X103.827 Y79.011 E0.05651
G1 X104.785 Y78.260 E0.03818
G1 X105.660 Y77.620 E0.03398
G1 X106.612 Y76.972 E0.03610
G1 X107.585 Y76.357 E0.03611
G1 X108.579 Y75.775 E0.03611
G1 X109.533 Y75.261 E0.03398
G1 X110.625 Y74.717 E0.03825
G1 X112.087 Y74.066 E0.05017
G1 X113.391 Y73.553 E0.04394
G1 X114.834 Y73.057 E0.04785
G1 X115.935 Y72.727 E0.03604
G1 X116.942 Y72.461 E0.03265
G1 X118.176 Y72.180 E0.03970
G1 X119.313 Y71.964 E0.03627
G1 X120.296 Y71.812 E0.03117
G1 X121.626 Y71.649 E0.04202
G1 X123.081 Y71.533 E0.04579
G1 X124.498 Y71.485 E0.04445
G1 X124.498 Y76.542 E0.15857
G1 X123.486 Y76.684 E0.03205
G1 X121.984 Y76.949 E0.04783
G1 X119.675 Y77.592 E0.07516
G1 X117.462 Y78.473 E0.07469
G1 X115.352 Y79.566 E0.07451
G1 X113.373 Y80.847 E0.07390
G1 X111.522 Y82.294 E0.07366
G1 X109.818 Y83.881 E0.07302
G1 X108.245 Y85.585 E0.07271
G1 X106.816 Y87.403 E0.07250
G1 X105.523 Y89.303 E0.07206
G1 X104.363 Y91.281 E0.07190
G1 X103.341 Y93.336 E0.07196
G1 X102.467 Y95.452 E0.07177
G1 X101.743 Y97.624 E0.07181
G1 X101.185 Y99.850 E0.07195
G1 X100.817 Y102.119 E0.07205
G1 X100.653 Y104.414 E0.07215
G1 X100.709 Y106.715 E0.07216
G1 X100.976 Y108.999 E0.07211
G1 X101.442 Y111.248 E0.07201
G1 X102.085 Y113.448 E0.07187
G1 X102.887 Y115.593 E0.07179
G1 X103.832 Y117.677 E0.07177
G1 X104.926 Y119.697 E0.07200
G1 X106.151 Y121.633 E0.07184
G1 X106.638 Y122.321 E0.02642
G1 X107.669 Y123.690 E0.05375
G1 X109.014 Y125.258 E0.06477
G1 X109.935 Y126.207 E0.04147
G1 X110.652 Y126.906 E0.03140
G1 X111.145 Y127.347 E0.02075
G1 X112.374 Y128.387 E0.05046
G1 X113.680 Y129.339 E0.05068
G1 X114.347 Y129.793 E0.02530
G1 X115.016 Y130.204 E0.02462
G1 X116.392 Y130.988 E0.04966
G1 X117.735 Y131.618 E0.04649
G1 X118.556 Y131.972 E0.02803
G1 X119.136 Y132.186 E0.01939
G1 X120.822 Y132.739 E0.05565
G1 X121.928 Y133.005 E0.03565
G1 X123.164 Y133.263 E0.03960
G1 X124.498 Y133.420 E0.04213
G1 X124.498 Y138.453 E0.15779
G1 X124.875 Y138.895 F10800.000
;TYPE:External perimeter
G1 F1200.000
G1 X123.028 Y138.841 E0.05795
G1 X121.588 Y138.727 E0.04531
G1 X120.244 Y138.562 E0.04246
G1 X119.249 Y138.408 E0.03156
G1 X118.100 Y138.189 E0.03668
G1 X116.744 Y137.877 E0.04362
G1 X115.833 Y137.636 E0.02955
G1 X114.719 Y137.302 E0.03647
G1 X113.261 Y136.801 E0.04834
G1 X111.941 Y136.282 E0.04446
G1 X110.464 Y135.624 E0.05069
G1 X109.359 Y135.074 E0.03870
G1 X108.395 Y134.553 E0.03437
G1 X107.389 Y133.966 E0.03651
G1 X106.405 Y133.343 E0.03652
G1 X105.442 Y132.688 E0.03651
G1 X104.558 Y132.041 E0.03437
G1 X103.588 Y131.280 E0.03864
G1 X102.212 Y130.096 E0.05690
G1 X101.046 Y128.987 E0.05047
G1 X100.190 Y128.099 E0.03866
G1 X99.456 Y127.285 E0.03437
G1 X98.706 Y126.395 E0.03651
G1 X97.986 Y125.479 E0.03652
G1 X97.299 Y124.539 E0.03651
G1 X96.682 Y123.633 E0.03435
G1 X95.828 Y122.266 E0.05055
G1 X95.114 Y120.997 E0.04568
G1 X94.396 Y119.579 E0.04981
G1 X93.887 Y118.456 E0.03866
G1 X93.468 Y117.443 E0.03437
G1 X93.059 Y116.353 E0.03651
G1 X92.688 Y115.249 E0.03652
G1 X92.355 Y114.133 E0.03651
G1 X92.077 Y113.073 E0.03437
G1 X91.805 Y111.871 E0.03864
G1 X91.480 Y110.048 E0.05807
G1 X91.281 Y108.488 E0.04930
G1 X91.177 Y107.259 E0.03866
G1 X91.121 Y106.164 E0.03437
G1 X91.101 Y105.000 E0.03651
G1 X91.121 Y103.836 E0.03651
G1 X91.177 Y102.741 E0.03437
G1 X91.281 Y101.512 E0.03866
G1 X91.480 Y99.952 E0.04932
G1 X91.805 Y98.129 E0.05805
G1 X92.077 Y96.927 E0.03864
G1 X92.355 Y95.867 E0.03437
G1 X92.688 Y94.751 E0.03651
G1 X93.059 Y93.647 E0.03652
G1 X93.468 Y92.557 E0.03651
G1 X93.887 Y91.544 E0.03437
G1 X94.396 Y90.421 E0.03866
G1 X95.114 Y89.003 E0.04983
G1 X95.829 Y87.734 E0.04567
G1 X96.682 Y86.367 E0.05053
G1 X97.299 Y85.461 E0.03435
G1 X97.986 Y84.521 E0.03651
G1 X98.706 Y83.605 E0.03652
G1 X99.456 Y82.715 E0.03651
G1 X100.190 Y81.901 E0.03437
G1 X101.046 Y81.013 E0.03866
G1 X102.208 Y79.908 E0.05030
G1 X103.588 Y78.720 E0.05707
G1 X104.558 Y77.959 E0.03864
G1 X105.442 Y77.312 E0.03437
G1 X106.405 Y76.657 E0.03651
G1 X107.389 Y76.034 E0.03652
G1 X108.395 Y75.447 E0.03651
G1 X109.359 Y74.926 E0.03437
G1 X110.464 Y74.376 E0.03870
G1 X111.941 Y73.718 E0.05069
G1 X113.261 Y73.199 E0.04446
G1 X114.719 Y72.698 E0.04834
G1 X115.833 Y72.364 E0.03647
G1 X116.852 Y72.095 E0.03304
G1 X118.099 Y71.811 E0.04011
G1 X119.249 Y71.592 E0.03669
G1 X120.244 Y71.438 E0.03156
G1 X121.588 Y71.273 E0.04246
G1 X123.059 Y71.157 E0.04628
G1 X124.278 Y71.109 E0.03824
G1 X124.875 Y71.106 E0.01874
G1 X124.875 Y76.897 E0.18158
G1 X124.399 Y76.926 E0.01497
G1 X123.547 Y77.056 E0.02701
G1 X122.068 Y77.318 E0.04711
G1 X119.796 Y77.950 E0.07396
G1 X117.619 Y78.817 E0.07347
G1 X115.541 Y79.893 E0.07335
G1 X113.592 Y81.154 E0.07280
G1 X111.767 Y82.581 E0.07262
G1 X110.085 Y84.147 E0.07206
G1 X108.533 Y85.830 E0.07180
G1 X107.120 Y87.626 E0.07163
G1 X105.842 Y89.505 E0.07125
G1 X104.695 Y91.461 E0.07110
G1 X103.684 Y93.492 E0.07114
G1 X102.820 Y95.583 E0.07094
G1 X102.105 Y97.730 E0.07094
G1 X101.555 Y99.927 E0.07100
G1 X101.192 Y102.162 E0.07102
G1 X101.031 Y104.423 E0.07106
M73 Q0 S94
G1 X101.086 Y106.688 E0.07105
G1 X101.349 Y108.939 E0.07104
G1 X101.808 Y111.157 E0.07101
G1 X102.443 Y113.329 E0.07097
G1 X103.236 Y115.449 E0.07095
G1 X104.170 Y117.509 E0.07095
G1 X105.251 Y119.506 E0.07119
G1 X106.464 Y121.423 E0.07113
G1 X106.942 Y122.098 E0.02594
G1 X107.963 Y123.454 E0.05320
G1 X109.292 Y125.004 E0.06402
G1 X110.202 Y125.940 E0.04095
G1 X110.910 Y126.630 E0.03099
G1 X111.393 Y127.063 E0.02033
G1 X112.607 Y128.090 E0.04987
G1 X113.897 Y129.031 E0.05007
G1 X114.552 Y129.477 E0.02483
G1 X115.208 Y129.879 E0.02415
G1 X116.566 Y130.653 E0.04900
G1 X117.889 Y131.274 E0.04583
G1 X118.696 Y131.621 E0.02753
G1 X119.260 Y131.829 E0.01886
G1 X120.925 Y132.376 E0.05496
G1 X122.010 Y132.637 E0.03499
G1 X123.225 Y132.891 E0.03890
G1 X124.875 Y133.085 E0.05211
G1 X124.875 Y138.835 E0.18029
G1 X124.516 Y138.720 F10800.000
;WIPE_START
G1 F8640.000
G1 X123.028 Y138.841 E-0.42657
G1 X121.589 Y138.727 E-0.33343
;WIPE_END
G1 E-0.04000 F2100.000
G1 Z0.800 F10800.000
G1 X124.385 Y72.364
G1 Z0.200
G1 E0.80000 F2100.000
;TYPE:Solid infill
;WIDTH:0.420492
G1 F1200.000
G1 X123.812 Y71.791 E0.02545
G1 X123.296 Y71.809 E0.01622
G1 X124.216 Y72.729 E0.04083
G1 X124.216 Y73.263 E0.01676
G1 X122.793 Y71.840 E0.06317
G1 X122.298 Y71.879 E0.01558
G1 X124.216 Y73.797 E0.08514
G1 X124.216 Y74.331 E0.01676
G1 X121.803 Y71.918 E0.10710
G1 X121.322 Y71.971 E0.01520
G1 X124.216 Y74.865 E0.12848
G1 X124.216 Y75.399 E0.01676
G1 X120.846 Y72.029 E0.14959
G1 X120.371 Y72.088 E0.01504
G1 X124.216 Y75.932 E0.17071
G1 X124.216 Y76.296 E0.01141
G1 X124.066 Y76.317 E0.00474
G1 X119.907 Y72.158 E0.18464
G1 X119.445 Y72.230 E0.01469
G1 X123.598 Y76.382 E0.18437
G1 X123.139 Y76.458 E0.01459
G1 X118.994 Y72.313 E0.18404
G1 X118.545 Y72.398 E0.01434
G1 X122.685 Y76.538 E0.18382
G1 X122.232 Y76.618 E0.01446
G1 X118.101 Y72.487 E0.18342
G1 X117.666 Y72.586 E0.01400
G1 X121.789 Y76.710 E0.18309
G1 X121.372 Y76.826 E0.01361
G1 X117.231 Y72.685 E0.18386
G1 X116.802 Y72.791 E0.01386
G1 X120.954 Y76.943 E0.18435
G1 X120.536 Y77.059 E0.01361
G1 X116.380 Y72.902 E0.18456
G1 X115.959 Y73.015 E0.01368
G1 X120.119 Y77.175 E0.18470
G1 X119.701 Y77.292 E0.01361
G1 X115.548 Y73.138 E0.18440
G1 X115.137 Y73.261 E0.01347
G1 X119.309 Y77.434 E0.18524
G1 X118.927 Y77.586 E0.01291
G1 X114.732 Y73.391 E0.18624
G1 X114.335 Y73.528 E0.01319
G1 X118.545 Y77.738 E0.18693
G1 X118.163 Y77.890 E0.01291
G1 X113.938 Y73.664 E0.18761
G1 X113.540 Y73.801 E0.01319
G1 X117.781 Y78.042 E0.18830
G1 X117.399 Y78.194 E0.01291
G1 X113.155 Y73.950 E0.18844
G1 X112.772 Y74.100 E0.01293
G1 X117.043 Y78.372 E0.18964
G1 X116.692 Y78.554 E0.01244
G1 X112.389 Y74.251 E0.19104
G1 X112.012 Y74.409 E0.01281
G1 X116.340 Y78.736 E0.19213
G1 X115.988 Y78.918 E0.01244
G1 X111.643 Y74.573 E0.19292
G1 X111.274 Y74.738 E0.01270
G1 X115.636 Y79.100 E0.19370
G1 X115.285 Y79.283 E0.01244
G1 X110.904 Y74.902 E0.19449
G1 X110.542 Y75.074 E0.01258
G1 X114.954 Y79.487 E0.19591
G1 X114.630 Y79.696 E0.01212
G1 X110.186 Y75.252 E0.19734
G1 X109.829 Y75.429 E0.01250
G1 X114.306 Y79.906 E0.19878
G1 X113.982 Y80.116 E0.01212
G1 X109.478 Y75.612 E0.19998
G1 X109.131 Y75.799 E0.01237
G1 X113.658 Y80.326 E0.20098
G1 X113.333 Y80.535 E0.01212
G1 X108.784 Y75.986 E0.20198
G1 X108.445 Y76.181 E0.01228
G1 X113.024 Y80.760 E0.20330
G1 X112.725 Y80.995 E0.01194
G1 X108.108 Y76.378 E0.20496
G1 X107.772 Y76.575 E0.01225
G1 X112.425 Y81.229 E0.20661
G1 X112.125 Y81.463 E0.01194
G1 X107.443 Y76.781 E0.20789
G1 X107.116 Y76.988 E0.01215
G1 X111.826 Y81.698 E0.20911
G1 X111.526 Y81.932 E0.01194
G1 X106.789 Y77.194 E0.21034
G1 X106.470 Y77.410 E0.01207
G1 X111.235 Y82.175 E0.21155
G1 X110.959 Y82.432 E0.01186
G1 X106.153 Y77.626 E0.21338
G1 X105.835 Y77.843 E0.01207
G1 X110.682 Y82.690 E0.21521
G1 X110.406 Y82.947 E0.01186
G1 X105.526 Y78.068 E0.21663
G1 X105.218 Y78.294 E0.01200
G1 X110.129 Y83.205 E0.21805
G1 X109.853 Y83.462 E0.01186
G1 X104.911 Y78.521 E0.21940
G1 X104.612 Y78.755 E0.01194
G1 X109.579 Y83.723 E0.22054
G1 X109.323 Y84.000 E0.01186
G1 X104.313 Y78.990 E0.22245
G1 X104.013 Y79.225 E0.01194
G1 X109.067 Y84.278 E0.22436
G1 X108.810 Y84.556 E0.01186
G1 X103.726 Y79.472 E0.22574
G1 X103.439 Y79.719 E0.01189
G1 X108.554 Y84.834 E0.22710
G1 X108.298 Y85.111 E0.01186
G1 X103.152 Y79.966 E0.22847
G1 X102.865 Y80.213 E0.01189
G1 X108.042 Y85.389 E0.22983
M73 Q1 S94
G1 X107.806 Y85.687 E0.01193
G1 X102.582 Y80.463 E0.23194
G1 X102.308 Y80.723 E0.01186
G1 X107.571 Y85.986 E0.23365
M73 P1 R94
G1 X107.335 Y86.285 E0.01194
G1 X102.035 Y80.984 E0.23535
G1 X101.761 Y81.244 E0.01186
G1 X107.100 Y86.584 E0.23706
G1 X106.865 Y86.882 E0.01194
G1 X101.488 Y81.506 E0.23872
G1 X101.226 Y81.777 E0.01186
G1 X106.630 Y87.181 E0.23992
G1 X106.410 Y87.496 E0.01204
G1 X100.964 Y82.049 E0.24181
G1 X100.702 Y82.321 E0.01186
G1 X106.194 Y87.813 E0.24386
G1 X105.978 Y88.131 E0.01207
G1 X100.448 Y82.601 E0.24555
G1 X100.194 Y82.881 E0.01187
G1 X105.762 Y88.449 E0.24720
G1 X105.546 Y88.767 E0.01207
G1 X99.941 Y83.162 E0.24882
G1 X99.697 Y83.452 E0.01190
G1 X105.329 Y89.084 E0.25007
G1 X105.128 Y89.417 E0.01221
G1 X99.453 Y83.742 E0.25197
G1 X99.218 Y84.022 E0.01148
G1 X99.209 Y84.032 E0.00042
G1 X104.931 Y89.754 E0.25403
G1 X104.733 Y90.090 E0.01225
G1 X98.974 Y84.331 E0.25570
G1 X98.739 Y84.630 E0.01194
G1 X104.536 Y90.427 E0.25737
G1 X104.339 Y90.764 E0.01225
G1 X98.505 Y84.930 E0.25902
G1 X98.279 Y85.238 E0.01200
G1 X104.141 Y91.100 E0.26027
G1 X103.961 Y91.454 E0.01247
G1 X98.054 Y85.546 E0.26229
G1 X97.829 Y85.855 E0.01200
G1 X103.784 Y91.811 E0.26441
G1 X103.606 Y92.167 E0.01250
G1 X97.612 Y86.173 E0.26613
G1 X97.396 Y86.491 E0.01207
G1 X103.429 Y92.524 E0.26786
G1 X103.252 Y92.880 E0.01250
G1 X97.183 Y86.811 E0.26946
G1 X96.977 Y87.140 E0.01217
G1 X103.075 Y93.238 E0.27075
G1 X102.919 Y93.616 E0.01284
G1 X96.772 Y87.469 E0.27293
G1 X96.567 Y87.797 E0.01217
G1 X102.763 Y93.994 E0.27511
G1 X102.607 Y94.371 E0.01284
G1 X96.364 Y88.128 E0.27720
G1 X96.171 Y88.470 E0.01231
G1 X102.451 Y94.749 E0.27881
G1 X102.295 Y95.127 E0.01284
G1 X95.979 Y88.811 E0.28042
